Newaita-dark/apps/64/eclipse.svg

<?xml version="1.0" encoding="UTF-8"?>
<svg xmlns="http://www.w3.org/2000/svg" xmlns:xlink="http://www.w3.org/1999/xlink" width="64pt" height="64pt" viewBox="0 0 64 64" version="1.1">
<defs>
<linearGradient id="linear0" gradientUnits="userSpaceOnUse" x1="127" y1="233.5" x2="127" y2="-168.666656" gradientTransform="matrix(0.125012,0,0,0.125012,1.323042,26.954281)">
<stop offset="0" style="stop-color:rgb(100%,43.921569%,26.27451%);stop-opacity:1;"/>
<stop offset="1" style="stop-color:rgb(100%,54.117647%,39.607843%);stop-opacity:1;"/>
</linearGradient>
<radialGradient id="radial0" gradientUnits="userSpaceOnUse" cx="450.908936" cy="189.579361" fx="450.908936" fy="189.579361" r="21.166656" gradientTransform="matrix(0.000000348341,-0.156265,-0.281277,-0.000000203077,91.430365,127.190659)">
<stop offset="0" style="stop-color:rgb(0%,0%,0%);stop-opacity:0.313725;"/>
<stop offset="0.222222" style="stop-color:rgb(0%,0%,0%);stop-opacity:0.27451;"/>
<stop offset="1" style="stop-color:rgb(0%,0%,0%);stop-opacity:0;"/>
</radialGradient>
<radialGradient id="radial1" gradientUnits="userSpaceOnUse" cx="450.908936" cy="189.579361" fx="450.908936" fy="189.579361" r="21.166656" gradientTransform="matrix(-0.000000348341,0.156265,0.281277,0.000000203077,-23.156176,-15.054964)">
<stop offset="0" style="stop-color:rgb(0%,0%,0%);stop-opacity:0.313725;"/>
<stop offset="0.222222" style="stop-color:rgb(0%,0%,0%);stop-opacity:0.27451;"/>
<stop offset="1" style="stop-color:rgb(0%,0%,0%);stop-opacity:0;"/>
</radialGradient>
<radialGradient id="radial2" gradientUnits="userSpaceOnUse" cx="450.908936" cy="189.579361" fx="450.908936" fy="189.579361" r="21.166656" gradientTransform="matrix(-0.000000348341,-0.156265,0.281277,-0.000000203077,-23.156176,127.190659)">
<stop offset="0" style="stop-color:rgb(0%,0%,0%);stop-opacity:0.313725;"/>
<stop offset="0.222222" style="stop-color:rgb(0%,0%,0%);stop-opacity:0.27451;"/>
<stop offset="1" style="stop-color:rgb(0%,0%,0%);stop-opacity:0;"/>
</radialGradient>
<radialGradient id="radial3" gradientUnits="userSpaceOnUse" cx="450.908936" cy="189.579361" fx="450.908936" fy="189.579361" r="21.166656" gradientTransform="matrix(0.000000348341,0.156265,-0.281277,0.000000203077,91.430361,-15.054965)">
<stop offset="0" style="stop-color:rgb(0%,0%,0%);stop-opacity:0.313725;"/>
<stop offset="0.222222" style="stop-color:rgb(0%,0%,0%);stop-opacity:0.27451;"/>
<stop offset="1" style="stop-color:rgb(0%,0%,0%);stop-opacity:0;"/>
</radialGradient>
<linearGradient id="linear1" gradientUnits="userSpaceOnUse" x1="255.323059" y1="233.5" x2="255.323044" y2="254.666656" gradientTransform="matrix(0.0267201,0,0,0.125012,27.314833,26.877567)">
<stop offset="0" style="stop-color:rgb(0%,0%,0%);stop-opacity:0.27451;"/>
<stop offset="1" style="stop-color:rgb(0%,0%,0%);stop-opacity:0;"/>
</linearGradient>
<linearGradient id="linear2" gradientUnits="userSpaceOnUse" x1="254" y1="-168.666672" x2="254" y2="233.5" gradientTransform="matrix(0.125012,0,0,0.125012,2.384061,26.877566)">
<stop offset="0" style="stop-color:rgb(70.196078%,61.568627%,85.882353%);stop-opacity:1;"/>
<stop offset="1" style="stop-color:rgb(49.411765%,34.117647%,76.078431%);stop-opacity:1;"/>
</linearGradient>
<linearGradient id="linear3" gradientUnits="userSpaceOnUse" x1="275.166656" y1="-168.666656" x2="275.166656" y2="233.5" gradientTransform="matrix(0.148845,0,0,0.0937589,-6.557251,27.890704)">
<stop offset="0" style="stop-color:rgb(74.117647%,74.117647%,74.117647%);stop-opacity:1;"/>
<stop offset="1" style="stop-color:rgb(93.333333%,93.333333%,93.333333%);stop-opacity:1;"/>
</linearGradient>
<linearGradient id="linear4" gradientUnits="userSpaceOnUse" x1="275.160614" y1="300.527557" x2="275.160614" y2="-235.694687" gradientTransform="matrix(0.148845,0,0,0.0937589,-6.557251,27.890704)">
<stop offset="0" style="stop-color:rgb(74.117647%,74.117647%,74.117647%);stop-opacity:1;"/>
<stop offset="1" style="stop-color:rgb(93.333333%,93.333333%,93.333333%);stop-opacity:1;"/>
</linearGradient>
</defs>
<g id="surface1">
<path style=" stroke:none;fill-rule:nonzero;fill:url(#linear0);" d="M 29.105469 5.867188 C 15.179688 5.867188 3.96875 17.082031 3.96875 31.007812 C 3.96875 44.933594 15.179688 56.144531 29.105469 56.144531 C 29.773438 56.144531 30.4375 56.117188 31.089844 56.066406 C 18.101562 55.0625 7.9375 44.265625 7.9375 31.007812 C 7.9375 17.75 18.101562 6.949219 31.089844 5.945312 C 30.4375 5.894531 29.773438 5.867188 29.105469 5.867188 Z M 29.105469 5.867188 "/>
<path style=" stroke:none;fill-rule:nonzero;fill:url(#radial0);" d="M 38.769531 56.066406 L 44.058594 56.066406 L 44.058594 53.421875 L 38.769531 53.421875 Z M 38.769531 56.066406 "/>
<path style=" stroke:none;fill-rule:nonzero;fill:url(#radial1);" d="M 29.507812 56.066406 L 24.214844 56.066406 L 24.214844 58.714844 L 29.507812 58.714844 Z M 29.507812 56.066406 "/>
<path style=" stroke:none;fill-rule:nonzero;fill:url(#radial2);" d="M 29.507812 56.066406 L 24.214844 56.066406 L 24.214844 53.421875 L 29.507812 53.421875 Z M 29.507812 56.066406 "/>
<path style=" stroke:none;fill-rule:nonzero;fill:url(#radial3);" d="M 38.769531 56.066406 L 44.058594 56.066406 L 44.058594 58.714844 L 38.769531 58.714844 Z M 38.769531 56.066406 "/>
<path style=" stroke:none;fill-rule:nonzero;fill:url(#linear1);" d="M 29.507812 55.40625 L 38.769531 55.40625 L 38.769531 58.714844 L 29.507812 58.714844 Z M 29.507812 55.40625 "/>
<path style=" stroke:none;fill-rule:nonzero;fill:url(#linear2);" d="M 34.136719 5.792969 C 48.019531 5.792969 59.273438 17.046875 59.273438 30.929688 C 59.273438 44.8125 48.019531 56.066406 34.136719 56.066406 C 20.253906 56.066406 9 44.8125 9 30.929688 C 9 17.046875 20.253906 5.792969 34.136719 5.792969 Z M 34.136719 5.792969 "/>
<path style=" stroke:none;fill-rule:nonzero;fill:rgb(0%,0%,0%);fill-opacity:0.196078;" d="M 34.136719 56.066406 C 20.210938 56.066406 9 44.855469 9 30.929688 C 9 30.847656 9 30.765625 9 30.683594 C 9.132812 44.496094 20.292969 55.574219 34.136719 55.574219 C 47.980469 55.574219 59.140625 44.496094 59.273438 30.683594 C 59.273438 30.765625 59.273438 30.847656 59.273438 30.929688 C 59.273438 44.855469 48.0625 56.066406 34.136719 56.066406 Z M 34.136719 56.066406 "/>
<path style=" stroke:none;fill-rule:nonzero;fill:rgb(100%,100%,100%);fill-opacity:0.392157;" d="M 34.136719 5.792969 C 20.210938 5.792969 9 17.003906 9 30.929688 C 9 31.011719 9 31.09375 9 31.175781 C 9.132812 17.363281 20.292969 6.285156 34.136719 6.285156 C 47.980469 6.285156 59.140625 17.363281 59.273438 31.175781 C 59.273438 31.09375 59.273438 31.011719 59.273438 30.929688 C 59.273438 17.003906 48.0625 5.792969 34.136719 5.792969 Z M 34.136719 5.792969 "/>
<path style=" stroke:none;fill-rule:nonzero;fill:url(#linear3);" d="M 11.019531 21.007812 C 10.476562 22.277344 10.035156 23.605469 9.703125 24.976562 L 58.570312 24.976562 C 58.242188 23.605469 57.796875 22.277344 57.253906 21.007812 Z M 9.074219 28.945312 C 9.023438 29.601562 9 30.261719 9 30.929688 C 9 31.597656 9.023438 32.261719 9.074219 32.914062 L 59.199219 32.914062 C 59.25 32.261719 59.273438 31.597656 59.273438 30.929688 C 59.273438 30.261719 59.25 29.601562 59.199219 28.945312 Z M 9.703125 36.882812 C 10.035156 38.253906 10.476562 39.582031 11.019531 40.851562 L 57.253906 40.851562 C 57.796875 39.582031 58.242188 38.253906 58.570312 36.882812 Z M 9.703125 36.882812 "/>
<path style=" stroke:none;fill-rule:nonzero;fill:url(#linear4);" d="M 11.019531 21.007812 C 10.476562 22.277344 10.035156 23.605469 9.703125 24.976562 L 58.570312 24.976562 C 58.242188 23.605469 57.796875 22.277344 57.253906 21.007812 Z M 9.074219 28.945312 C 9.023438 29.601562 9 30.261719 9 30.929688 C 9 31.597656 9.023438 32.261719 9.074219 32.914062 L 59.199219 32.914062 C 59.25 32.261719 59.273438 31.597656 59.273438 30.929688 C 59.273438 30.261719 59.25 29.601562 59.199219 28.945312 Z M 9.703125 36.882812 C 10.035156 38.253906 10.476562 39.582031 11.019531 40.851562 L 57.253906 40.851562 C 57.796875 39.582031 58.242188 38.253906 58.570312 36.882812 Z M 9.703125 36.882812 "/>
<path style=" stroke:none;fill-rule:nonzero;fill:rgb(100%,100%,100%);fill-opacity:0.392157;" d="M 9.871094 24.976562 C 9.8125 25.195312 9.757812 25.417969 9.703125 25.636719 L 58.570312 25.636719 C 58.519531 25.417969 58.460938 25.195312 58.402344 24.976562 Z M 9 31.261719 C 9 31.371094 9 31.480469 9 31.589844 C 9 32.257812 9.023438 32.921875 9.074219 33.574219 L 59.199219 33.574219 C 59.25 32.921875 59.273438 32.257812 59.273438 31.589844 C 59.273438 31.480469 59.273438 31.371094 59.273438 31.261719 C 59.265625 31.816406 59.242188 32.367188 59.199219 32.914062 L 9.074219 32.914062 C 9.035156 32.367188 9.007812 31.816406 9 31.261719 Z M 9.703125 37.546875 C 10.035156 38.917969 10.476562 40.242188 11.019531 41.515625 L 57.253906 41.515625 C 57.796875 40.242188 58.242188 38.917969 58.570312 37.546875 L 58.402344 37.546875 C 58.09375 38.683594 57.710938 39.785156 57.253906 40.851562 L 11.019531 40.851562 C 10.5625 39.785156 10.179688 38.683594 9.871094 37.546875 Z M 9.703125 37.546875 "/>
<path style=" stroke:none;fill-rule:nonzero;fill:rgb(12.941177%,12.941177%,12.941177%);fill-opacity:1;" d="M 34.136719 5.605469 C 20.109375 5.605469 8.8125 16.902344 8.8125 30.929688 C 8.8125 44.957031 20.109375 56.253906 34.136719 56.253906 C 48.164062 56.253906 59.460938 44.957031 59.460938 30.929688 C 59.460938 16.902344 48.164062 5.605469 34.136719 5.605469 Z M 34.136719 5.980469 C 47.960938 5.980469 59.085938 17.105469 59.085938 30.929688 C 59.085938 44.753906 47.960938 55.878906 34.136719 55.878906 C 20.3125 55.878906 9.1875 44.753906 9.1875 30.929688 C 9.1875 17.105469 20.3125 5.980469 34.136719 5.980469 Z M 34.136719 5.980469 "/>
<path style=" stroke:none;fill-rule:nonzero;fill:rgb(0%,0%,0%);fill-opacity:0.235294;" d="M 11.019531 21.007812 C 10.476562 22.277344 10.035156 23.605469 9.703125 24.976562 L 9.871094 24.976562 C 10.179688 23.839844 10.5625 22.734375 11.019531 21.667969 L 57.253906 21.667969 C 57.710938 22.734375 58.09375 23.839844 58.402344 24.976562 L 58.570312 24.976562 C 58.242188 23.605469 57.796875 22.277344 57.253906 21.007812 Z M 9.074219 28.945312 C 9.023438 29.601562 9 30.261719 9 30.929688 C 9 31.039062 9 31.152344 9 31.261719 C 9.007812 30.703125 9.035156 30.152344 9.074219 29.605469 L 59.199219 29.605469 C 59.242188 30.152344 59.265625 30.703125 59.273438 31.261719 C 59.273438 31.152344 59.273438 31.039062 59.273438 30.929688 C 59.273438 30.261719 59.25 29.601562 59.199219 28.945312 Z M 9.703125 36.882812 C 9.757812 37.105469 9.8125 37.324219 9.871094 37.546875 L 58.402344 37.546875 C 58.460938 37.324219 58.519531 37.105469 58.570312 36.882812 Z M 9.703125 36.882812 "/>
<path style="fill:none;stroke-width:11.338583;stroke-linecap:round;stroke-linejoin:round;stroke:rgb(12.941177%,12.941177%,12.941177%);stroke-opacity:1;stroke-miterlimit:4;" d="M 333.157179 635.136231 C 316.741423 673.518395 303.39624 713.672043 293.357828 755.124779 L 1770.775874 755.124779 C 1760.855561 713.672043 1747.392279 673.518395 1730.976523 635.136231 Z M 274.343895 875.113327 C 272.808608 894.953953 272.100014 914.912678 272.100014 935.107601 C 272.100014 955.302524 272.808608 975.379348 274.343895 995.101875 L 1789.789808 995.101875 C 1791.325094 975.379348 1792.033688 955.302524 1792.033688 935.107601 C 1792.033688 914.912678 1791.325094 894.953953 1789.789808 875.113327 Z M 293.357828 1115.090423 C 303.39624 1156.54316 316.741423 1196.696808 333.157179 1235.078971 L 1730.976523 1235.078971 C 1747.392279 1196.696808 1760.855561 1156.54316 1770.775874 1115.090423 Z M 293.357828 1115.090423 " transform="matrix(0.0330761,0,0,0.0330761,0,0)"/>
<path style=" stroke:none;fill-rule:nonzero;fill:rgb(100%,100%,100%);fill-opacity:0.392157;" d="M 19.398438 13.070312 C 21.574219 11.730469 24.039062 11.777344 24.902344 13.179688 C 25.761719 14.578125 24.695312 16.800781 22.515625 18.140625 C 20.335938 19.480469 17.875 19.429688 17.011719 18.03125 C 16.152344 16.628906 17.21875 14.410156 19.398438 13.070312 Z M 19.398438 13.070312 "/>
</g>
</svg>

<svg xmlns="http://www.w3.org/2000/svg" width="64pt" height="64pt" viewBox="0 0 64 64"><defs><linearGradient id="a" gradientUnits="userSpaceOnUse" x1="127" y1="233.5" x2="127" y2="-168.667" gradientTransform="translate(1.323 26.954) scale(.12501)"><stop offset="0" stop-color="#ff7043"/><stop offset="1" stop-color="#ff8a65"/></linearGradient><radialGradient id="b" gradientUnits="userSpaceOnUse" cx="450.909" cy="189.579" fx="450.909" fy="189.579" r="21.167" gradientTransform="matrix(0 -.15626 -.28128 0 91.43 127.19)"><stop offset="0" stop-opacity=".314"/><stop offset=".222" stop-opacity=".275"/><stop offset="1" stop-opacity="0"/></radialGradient><radialGradient id="c" gradientUnits="userSpaceOnUse" cx="450.909" cy="189.579" fx="450.909" fy="189.579" r="21.167" gradientTransform="matrix(0 .15626 .28128 0 -23.156 -15.055)"><stop offset="0" stop-opacity=".314"/><stop offset=".222" stop-opacity=".275"/><stop offset="1" stop-opacity="0"/></radialGradient><radialGradient id="d" gradientUnits="userSpaceOnUse" cx="450.909" cy="189.579" fx="450.909" fy="189.579" r="21.167" gradientTransform="matrix(0 -.15626 .28128 0 -23.156 127.19)"><stop offset="0" stop-opacity=".314"/><stop offset=".222" stop-opacity=".275"/><stop offset="1" stop-opacity="0"/></radialGradient><radialGradient id="e" gradientUnits="userSpaceOnUse" cx="450.909" cy="189.579" fx="450.909" fy="189.579" r="21.167" gradientTransform="matrix(0 .15626 -.28128 0 91.43 -15.055)"><stop offset="0" stop-opacity=".314"/><stop offset=".222" stop-opacity=".275"/><stop offset="1" stop-opacity="0"/></radialGradient><linearGradient id="f" gradientUnits="userSpaceOnUse" x1="255.323" y1="233.5" x2="255.323" y2="254.667" gradientTransform="matrix(.02672 0 0 .12501 27.315 26.878)"><stop offset="0" stop-opacity=".275"/><stop offset="1" stop-opacity="0"/></linearGradient><linearGradient id="g" gradientUnits="userSpaceOnUse" x1="254" y1="-168.667" x2="254" y2="233.5" gradientTransform="translate(2.384 26.878) scale(.12501)"><stop offset="0" stop-color="#b39ddb"/><stop offset="1" stop-color="#7e57c2"/></linearGradient><linearGradient id="h" gradientUnits="userSpaceOnUse" x1="275.167" y1="-168.667" x2="275.167" y2="233.5" gradientTransform="matrix(.14885 0 0 .09376 -6.557 27.89)"><stop offset="0" stop-color="#bdbdbd"/><stop offset="1" stop-color="#eee"/></linearGradient><linearGradient id="i" gradientUnits="userSpaceOnUse" x1="275.161" y1="300.528" x2="275.161" y2="-235.695" gradientTransform="matrix(.14885 0 0 .09376 -6.557 27.89)"><stop offset="0" stop-color="#bdbdbd"/><stop offset="1" stop-color="#eee"/></linearGradient></defs><path d="M29.105 5.867A25.085 25.085 0 0 0 3.97 31.007a25.082 25.082 0 0 0 25.136 25.138c.668 0 1.332-.028 1.985-.079-12.988-1.004-23.152-11.8-23.152-25.058S18.102 6.949 31.09 5.945a25.607 25.607 0 0 0-1.985-.078zm0 0" fill="url(#a)"/><path d="M38.77 56.066h5.289v-2.644h-5.29zm0 0" fill="url(#b)"/><path d="M29.508 56.066h-5.293v2.649h5.293zm0 0" fill="url(#c)"/><path d="M29.508 56.066h-5.293v-2.644h5.293zm0 0" fill="url(#d)"/><path d="M38.77 56.066h5.289v2.649h-5.29zm0 0" fill="url(#e)"/><path d="M29.508 55.406h9.262v3.309h-9.262zm0 0" fill="url(#f)"/><path d="M34.137 5.793c13.883 0 25.136 11.254 25.136 25.137 0 13.883-11.253 25.136-25.136 25.136S9 44.812 9 30.93C9 17.047 20.254 5.793 34.137 5.793zm0 0" fill="url(#g)"/><path d="M34.137 56.066A25.082 25.082 0 0 1 9 30.93v-.246a25.082 25.082 0 0 0 25.137 24.89 25.082 25.082 0 0 0 25.136-24.89v.246a25.082 25.082 0 0 1-25.136 25.136zm0 0" fill-opacity=".196"/><path d="M34.137 5.793A25.082 25.082 0 0 0 9 30.93v.246a25.082 25.082 0 0 1 25.137-24.89 25.082 25.082 0 0 1 25.136 24.89v-.246A25.082 25.082 0 0 0 34.137 5.793zm0 0" fill="#fff" fill-opacity=".392"/><path d="M11.02 21.008a25.143 25.143 0 0 0-1.317 3.969H58.57a24.75 24.75 0 0 0-1.316-3.97zm-1.946 7.937A25.69 25.69 0 0 0 9 30.93c0 .668.023 1.332.074 1.984H59.2c.051-.652.074-1.316.074-1.984 0-.668-.023-1.328-.074-1.985zm.63 7.938c.331 1.37.773 2.699 1.316 3.969h46.234a24.75 24.75 0 0 0 1.316-3.97zm0 0" fill="url(#h)"/><path d="M11.02 21.008a25.143 25.143 0 0 0-1.317 3.969H58.57a24.75 24.75 0 0 0-1.316-3.97zm-1.946 7.937A25.69 25.69 0 0 0 9 30.93c0 .668.023 1.332.074 1.984H59.2c.051-.652.074-1.316.074-1.984 0-.668-.023-1.328-.074-1.985zm.63 7.938c.331 1.37.773 2.699 1.316 3.969h46.234a24.75 24.75 0 0 0 1.316-3.97zm0 0" fill="url(#i)"/><path d="M9.871 24.977c-.059.218-.113.441-.168.66H58.57c-.05-.219-.11-.442-.168-.66zM9 31.262v.328c0 .668.023 1.332.074 1.984H59.2c.051-.652.074-1.316.074-1.984v-.328a25.715 25.715 0 0 1-.074 1.652H9.074A28.891 28.891 0 0 1 9 31.262zm.703 6.285a25.277 25.277 0 0 0 1.317 3.969h46.234a24.879 24.879 0 0 0 1.316-3.97h-.168a25.016 25.016 0 0 1-1.148 3.306H11.02a25.016 25.016 0 0 1-1.149-3.305zm0 0" fill="#fff" fill-opacity=".392"/><path d="M34.137 5.605A25.272 25.272 0 0 0 8.812 30.93a25.272 25.272 0 0 0 25.325 25.324A25.272 25.272 0 0 0 59.46 30.93 25.272 25.272 0 0 0 34.137 5.605zm0 .375a24.892 24.892 0 0 1 24.949 24.95 24.892 24.892 0 0 1-24.95 24.949 24.892 24.892 0 0 1-24.949-24.95A24.892 24.892 0 0 1 34.138 5.98zm0 0" fill="#212121"/><path d="M11.02 21.008a25.143 25.143 0 0 0-1.317 3.969h.168a25.07 25.07 0 0 1 1.149-3.309h46.234a25.07 25.07 0 0 1 1.148 3.309h.168a24.75 24.75 0 0 0-1.316-3.97zm-1.946 7.937A25.69 25.69 0 0 0 9 30.93v.332c.008-.559.035-1.11.074-1.657H59.2c.043.547.067 1.098.074 1.657v-.332c0-.668-.023-1.328-.074-1.985zm.63 7.938c.054.222.108.441.167.664h48.531c.059-.223.118-.442.168-.664zm0 0" fill-opacity=".235"/><path d="M11.02 21.008a25.143 25.143 0 0 0-1.317 3.969H58.57a24.75 24.75 0 0 0-1.316-3.97zm-1.946 7.937A25.69 25.69 0 0 0 9 30.93c0 .668.023 1.332.074 1.984H59.2c.051-.652.074-1.316.074-1.984 0-.668-.023-1.328-.074-1.985zm.63 7.938c.331 1.37.773 2.7 1.316 3.969h46.234a24.75 24.75 0 0 0 1.316-3.97zm0 0" fill="none" stroke-width=".37509412" stroke-linecap="round" stroke-linejoin="round" stroke="#212121"/><path d="M19.398 13.07c2.176-1.34 4.641-1.293 5.504.11.86 1.398-.207 3.62-2.386 4.96-2.18 1.34-4.641 1.29-5.504-.109-.86-1.402.207-3.62 2.386-4.96zm0 0" fill="#fff" fill-opacity=".392"/></svg>
